COLOR/action 16/16/star-new.svg

<svg height="16" width="16" xmlns="http://www.w3.org/2000/svg"><g fill="#fed34d" transform="matrix(1.0702418 0 0 1.124974 -292.73256 107.37253)"><path d="m281.0002-95.000001c-.00067 0-.001.000159-.002.0012-.001.000166-.001.000999-.001.0015-.001.0005-.001.0013-.002.0018-.001.000499-.001.000499-.002.0012-.84339 1.809997-1.49509 3.65462-1.86564 4.784918-1.21897.001-3.22666.04723-5.14021.295595-.00016.000666-.00033.001.00034.0015-.00017.0012.00066.0017.001.0022.00017.0012.00067.0015.001.0018.00017.0012.00033.001.00067.0015 1.46077 1.361454 3.01387 2.551278 3.97436 3.252997-.37586 1.159558-.95241 3.083467-1.30752 4.980185.0005.000333.00066.0005.002 0 .001.0005.002-.000167.002-.000333.001.000166.002-.000167.002-.000333.001.000166.001.000166.002 0 1.74632-.968619 3.35794-2.077725 4.32211-2.774361.98669.715812 2.63856 1.858515 4.33253 2.782274.0005-.000333.0005-.000999.00033-.0018.00067-.000667.00034-.0017.00034-.0021.0005-.001.00033-.0018.00033-.0021.0005-.001.00067-.0012.00067-.0019-.38157-1.960181-.93862-3.835712-1.30321-4.967959.9857-.717221 2.58251-1.934673 3.98443-3.26019-.00017-.0005-.0005-.001-.002-.0012-.0005-.001-.001-.001-.002-.0012-.00067-.000666-.002-.000999-.002-.0012-.00067-.000666-.00067-.0012-.001-.0015-1.98208-.242821-3.93775-.292461-5.12727-.295597-.37754-1.159123-1.04226-3.054058-1.86959-4.796785z"/><path d="m281.0002-95.000001c-.00067 0-.001.000159-.002.0012-.001.000166-.001.000999-.001.0015-.001.0005-.001.0013-.002.0018-.001.000499-.001.000499-.002.0012-.84339 1.809997-1.49509 3.65462-1.86564 4.784918-1.21897.001-3.22666.04723-5.14021.295595-.00016.000666-.00033.001.00034.0015-.00017.0012.00066.0017.001.0022.00017.0012.00067.0015.001.0018.00017.0012.00033.001.00067.0015 1.46077 1.361454 3.01387 2.551278 3.97436 3.252997-.37586 1.159558-.95241 3.083467-1.30752 4.980185.0005.000333.00066.0005.002 0 .001.0005.002-.000167.002-.000333.001.000166.002-.000167.002-.000333.001.000166.001.000166.002 0 1.74632-.968619 3.35794-2.077725 4.32211-2.774361.98669.715812 2.63856 1.858515 4.33253 2.782274.0005-.000333.0005-.000999.00033-.0018.00067-.000667.00034-.0017.00034-.0021.0005-.001.00033-.0018.00033-.0021.0005-.001.00067-.0012.00067-.0019-.38157-1.960181-.93862-3.835712-1.30321-4.967959.9857-.717221 2.58251-1.934673 3.98443-3.26019-.00017-.0005-.0005-.001-.002-.0012-.0005-.001-.001-.001-.002-.0012-.00067-.000666-.002-.000999-.002-.0012-.00067-.000666-.00067-.0012-.001-.0015-1.98208-.242821-3.93775-.292461-5.12727-.295597-.37754-1.159123-1.04226-3.054058-1.86959-4.796785z"/><path d="m281.0002-95.000001c-.00067 0-.001.000159-.002.0012-.001.000166-.001.000999-.001.0015-.001.0005-.001.0013-.002.0018-.001.000499-.001.000499-.002.0012-.84339 1.809997-1.49509 3.65462-1.86564 4.784918-1.21897.001-3.22666.04723-5.14021.295595-.00016.000666-.00033.001.00034.0015-.00017.0012.00066.0017.001.0022.00017.0012.00067.0015.001.0018.00017.0012.00033.001.00067.0015 1.46077 1.361454 3.01387 2.551278 3.97436 3.252997-.37586 1.159558-.95241 3.083467-1.30752 4.980185.0005.000333.00066.0005.002 0 .001.0005.002-.000167.002-.000333.001.000166.002-.000167.002-.000333.001.000166.001.000166.002 0 1.74632-.968619 3.35794-2.077725 4.32211-2.774361.98669.715812 2.63856 1.858515 4.33253 2.782274.0005-.000333.0005-.000999.00033-.0018.00067-.000667.00034-.0017.00034-.0021.0005-.001.00033-.0018.00033-.0021.0005-.001.00067-.0012.00067-.0019-.38157-1.960181-.93862-3.835712-1.30321-4.967959.9857-.717221 2.58251-1.934673 3.98443-3.26019-.00017-.0005-.0005-.001-.002-.0012-.0005-.001-.001-.001-.002-.0012-.00067-.000666-.002-.000999-.002-.0012-.00067-.000666-.00067-.0012-.001-.0015-1.98208-.242821-3.93775-.292461-5.12727-.295597-.37754-1.159123-1.04226-3.054058-1.86959-4.796785z"/></g><path d="m8.0039062.50195312s-.0019531.00195313-.0019531.00195313-.0019531.00195313-.0019531.00195313h-.0019531c-.9026313 2.03619952-1.5995157 4.11125662-1.9960938 5.38281252-1.3045926.0011249-3.4539919.0545802-5.5019531.3339843-.00018194.00135.00158924.0033438.00195312.0039063v.0019531s.00195313.0019532.00195313.0019532c.15533443.1521771.31218357.2914373.46875.4394531 1.90003995-.2267318 3.82475375-.2802113 5.02929685-.28125.3965781-1.2715559 1.0934625-3.346613 1.9960938-5.3828125h.0019531s.0019531-.0019532.0019531-.0019532.0019531-.0019531.0019531-.0019531c.8850995 1.9600716 1.5980067 4.0909114 2.0019528 5.3945313 1.179374.0032682 3.066092.0589495 5.023438.2832031.156816-.1494231.317325-.2928773.470703-.4453125 0 0-.001953-.0019531-.001953-.0019531h-.001953s-.001953-.0019531-.001953-.0019531-.001953-.0019532-.001953-.0019532c-2.121305-.2731673-4.213255-.3285033-5.486329-.3320312-.4039461-1.3036199-1.1168533-3.4344597-2.0019528-5.39453128zm-3.3613281 9.79296888c-.3988725 1.321462-.9360945 3.237507-1.2851562 5.197266h.0019531.0019531s.0019531-.001954.0019531-.001954h.0019532c.0368225-.021468.0707154-.044819.1074218-.066406.3813831-1.941791.9188046-3.847132 1.2851563-5.035156-.0308607-.023699-.0832503-.069071-.1152344-.09375zm6.7089839.015625c-.031931.024535-.084398.068212-.115234.091797.356631 1.164169.879187 3.033839 1.279297 5.029297.038158.022111.075077.04646.113281.068359v-.001953-.001953-.001953c.000535-.001125.001953-.003119.001953-.003907-.374283-2.021079-.892666-3.88905-1.279297-5.179687z" fill="#fff" opacity=".3" stroke-width="1.097267" transform="translate(-.000001)"/><path d="m272.90894-88.119096c-.14746.01674-.29488.02783-.44163.04688-.00017.0012.001.003.002.0035v.0017s.002.0017.002.0017c1.41691 1.320584 2.90147 2.459676 3.86704 3.168479.0331-.104294.077-.266562.10767-.36112-.86506-.631997-2.21066-1.668526-3.53673-2.861177zm13.13408.0087c-1.28682 1.166501-2.65909 2.220746-3.54403 2.864649.0304.09451.0748.258367.10767.362856.9909-.72432 2.51523-1.892121 3.87617-3.178893 0 0-.002-.0017-.002-.0017h-.002s-.002-.0017-.002-.0017-.002-.0017-.002-.0017c-.14589-.01787-.28721-.02757-.43252-.0434zm-6.57525 5.057409c-.94518.682911-2.51639 1.760588-4.22291 2.71534-.0349.169189-.076.335902-.10767.50522h.002.002s.002-.0018.002-.0018h.002c1.74632-.968618 3.35911-2.077733 4.32328-2.774369.98669.715813 2.63843 1.859291 4.3324 2.783051v-.0018-.0018-.0018c.0005-.000978.002-.0028.002-.0035-.0328-.168632-.0725-.329578-.10767-.496538-1.65627-.913045-3.26066-2.021558-4.22656-2.722285z" opacity=".2" transform="matrix(1.0702418 0 0 1.124974 -291.09734 105.30733)"/><circle cx="23.5" cy="-32.703445" fill="#45a925" r="4.5" transform="matrix(0 1 1 0 44.203445 -12)"/><path d="m11.033203 8.8007812c-.184667 0-.333984.1178917-.333984.265625v1.7343748h-1.7324221c-.1477334 0-.2675781.147365-.2675781.332031v.333985c0 .184667.1198447.333984.2675781.333984h1.7324221v1.732422c0 .147733.149317.267578.333984.267578h.333985c.184666 0 .332031-.119845.332031-.267578v-1.732422h1.734375c.147733 0 .265625-.149317.265625-.333984v-.333985c0-.184666-.117892-.332031-.265625-.332031h-1.734375v-1.7343748c0-.1477333-.147365-.265625-.332031-.265625z" fill="#f4f4f4" transform="translate(.299998 .2)"/><path d="m11.5 7a4.5 4.5 0 0 0 -4.5 4.5 4.5 4.5 0 0 0 .0117188.207031 4.5 4.5 0 0 1 4.4882812-4.207031 4.5 4.5 0 0 1 4.488281 4.292969 4.5 4.5 0 0 0 .011719-.292969 4.5 4.5 0 0 0 -4.5-4.5z" fill="#fff" opacity=".3"/><path d="m11.5 16a4.5 4.5 0 0 0 4.500001-4.500001 4.5 4.5 0 0 0 -.01172-.207031 4.5 4.5 0 0 1 -4.488282 4.207032 4.5 4.5 0 0 1 -4.4882805-4.29297 4.5 4.5 0 0 0 -.011719.292969 4.5 4.5 0 0 0 4.4999995 4.500001z" opacity=".2"/></svg>

<?xml version="1.0" encoding="UTF-8" standalone="no"?>
<svg
   xmlns:dc="http://purl.org/dc/elements/1.1/"
   xmlns:cc="http://creativecommons.org/ns#"
   xmlns:rdf="http://www.w3.org/1999/02/22-rdf-syntax-ns#"
   xmlns:svg="http://www.w3.org/2000/svg"
   xmlns="http://www.w3.org/2000/svg"
   xmlns:sodipodi="http://sodipodi.sourceforge.net/DTD/sodipodi-0.dtd"
   xmlns:inkscape="http://www.inkscape.org/namespaces/inkscape"
   height="16"
   width="16"
   version="1.1"
   id="svg18"
   sodipodi:docname="star-new.svg"
   inkscape:version="0.92.4 (5da689c313, 2019-01-14)">
  <metadata
     id="metadata24">
    <rdf:RDF>
      <cc:Work
         rdf:about="">
        <dc:format>image/svg+xml</dc:format>
        <dc:type
           rdf:resource="http://purl.org/dc/dcmitype/StillImage" />
      </cc:Work>
    </rdf:RDF>
  </metadata>
  <defs
     id="defs22" />
  <sodipodi:namedview
     pagecolor="#ffffff"
     bordercolor="#666666"
     borderopacity="1"
     objecttolerance="10"
     gridtolerance="10"
     guidetolerance="10"
     inkscape:pageopacity="0"
     inkscape:pageshadow="2"
     inkscape:window-width="1920"
     inkscape:window-height="1016"
     id="namedview20"
     showgrid="false"
     inkscape:zoom="14.75"
     inkscape:cx="8"
     inkscape:cy="8"
     inkscape:window-x="0"
     inkscape:window-y="27"
     inkscape:window-maximized="1"
     inkscape:current-layer="svg18" />
  <g
     fill="#fed34d"
     transform="matrix(1.0702418 0 0 1.124974 -292.73256 107.37253)"
     id="g8">
    <path
       d="m281.0002-95.000001c-.00067 0-.001.000159-.002.0012-.001.000166-.001.000999-.001.0015-.001.0005-.001.0013-.002.0018-.001.000499-.001.000499-.002.0012-.84339 1.809997-1.49509 3.65462-1.86564 4.784918-1.21897.001-3.22666.04723-5.14021.295595-.00016.000666-.00033.001.00034.0015-.00017.0012.00066.0017.001.0022.00017.0012.00067.0015.001.0018.00017.0012.00033.001.00067.0015 1.46077 1.361454 3.01387 2.551278 3.97436 3.252997-.37586 1.159558-.95241 3.083467-1.30752 4.980185.0005.000333.00066.0005.002 0 .001.0005.002-.000167.002-.000333.001.000166.002-.000167.002-.000333.001.000166.001.000166.002 0 1.74632-.968619 3.35794-2.077725 4.32211-2.774361.98669.715812 2.63856 1.858515 4.33253 2.782274.0005-.000333.0005-.000999.00033-.0018.00067-.000667.00034-.0017.00034-.0021.0005-.001.00033-.0018.00033-.0021.0005-.001.00067-.0012.00067-.0019-.38157-1.960181-.93862-3.835712-1.30321-4.967959.9857-.717221 2.58251-1.934673 3.98443-3.26019-.00017-.0005-.0005-.001-.002-.0012-.0005-.001-.001-.001-.002-.0012-.00067-.000666-.002-.000999-.002-.0012-.00067-.000666-.00067-.0012-.001-.0015-1.98208-.242821-3.93775-.292461-5.12727-.295597-.37754-1.159123-1.04226-3.054058-1.86959-4.796785z"
       id="path2" />
    <path
       d="m281.0002-95.000001c-.00067 0-.001.000159-.002.0012-.001.000166-.001.000999-.001.0015-.001.0005-.001.0013-.002.0018-.001.000499-.001.000499-.002.0012-.84339 1.809997-1.49509 3.65462-1.86564 4.784918-1.21897.001-3.22666.04723-5.14021.295595-.00016.000666-.00033.001.00034.0015-.00017.0012.00066.0017.001.0022.00017.0012.00067.0015.001.0018.00017.0012.00033.001.00067.0015 1.46077 1.361454 3.01387 2.551278 3.97436 3.252997-.37586 1.159558-.95241 3.083467-1.30752 4.980185.0005.000333.00066.0005.002 0 .001.0005.002-.000167.002-.000333.001.000166.002-.000167.002-.000333.001.000166.001.000166.002 0 1.74632-.968619 3.35794-2.077725 4.32211-2.774361.98669.715812 2.63856 1.858515 4.33253 2.782274.0005-.000333.0005-.000999.00033-.0018.00067-.000667.00034-.0017.00034-.0021.0005-.001.00033-.0018.00033-.0021.0005-.001.00067-.0012.00067-.0019-.38157-1.960181-.93862-3.835712-1.30321-4.967959.9857-.717221 2.58251-1.934673 3.98443-3.26019-.00017-.0005-.0005-.001-.002-.0012-.0005-.001-.001-.001-.002-.0012-.00067-.000666-.002-.000999-.002-.0012-.00067-.000666-.00067-.0012-.001-.0015-1.98208-.242821-3.93775-.292461-5.12727-.295597-.37754-1.159123-1.04226-3.054058-1.86959-4.796785z"
       id="path4" />
    <path
       d="m281.0002-95.000001c-.00067 0-.001.000159-.002.0012-.001.000166-.001.000999-.001.0015-.001.0005-.001.0013-.002.0018-.001.000499-.001.000499-.002.0012-.84339 1.809997-1.49509 3.65462-1.86564 4.784918-1.21897.001-3.22666.04723-5.14021.295595-.00016.000666-.00033.001.00034.0015-.00017.0012.00066.0017.001.0022.00017.0012.00067.0015.001.0018.00017.0012.00033.001.00067.0015 1.46077 1.361454 3.01387 2.551278 3.97436 3.252997-.37586 1.159558-.95241 3.083467-1.30752 4.980185.0005.000333.00066.0005.002 0 .001.0005.002-.000167.002-.000333.001.000166.002-.000167.002-.000333.001.000166.001.000166.002 0 1.74632-.968619 3.35794-2.077725 4.32211-2.774361.98669.715812 2.63856 1.858515 4.33253 2.782274.0005-.000333.0005-.000999.00033-.0018.00067-.000667.00034-.0017.00034-.0021.0005-.001.00033-.0018.00033-.0021.0005-.001.00067-.0012.00067-.0019-.38157-1.960181-.93862-3.835712-1.30321-4.967959.9857-.717221 2.58251-1.934673 3.98443-3.26019-.00017-.0005-.0005-.001-.002-.0012-.0005-.001-.001-.001-.002-.0012-.00067-.000666-.002-.000999-.002-.0012-.00067-.000666-.00067-.0012-.001-.0015-1.98208-.242821-3.93775-.292461-5.12727-.295597-.37754-1.159123-1.04226-3.054058-1.86959-4.796785z"
       id="path6" />
  </g>
  <path
     d="m8.0039062.50195312s-.0019531.00195313-.0019531.00195313-.0019531.00195313-.0019531.00195313h-.0019531c-.9026313 2.03619952-1.5995157 4.11125662-1.9960938 5.38281252-1.3045926.0011249-3.4539919.0545802-5.5019531.3339843-.00018194.00135.00158924.0033438.00195312.0039063v.0019531s.00195313.0019532.00195313.0019532c.15533443.1521771.31218357.2914373.46875.4394531 1.90003995-.2267318 3.82475375-.2802113 5.02929685-.28125.3965781-1.2715559 1.0934625-3.346613 1.9960938-5.3828125h.0019531s.0019531-.0019532.0019531-.0019532.0019531-.0019531.0019531-.0019531c.8850995 1.9600716 1.5980067 4.0909114 2.0019528 5.3945313 1.179374.0032682 3.066092.0589495 5.023438.2832031.156816-.1494231.317325-.2928773.470703-.4453125 0 0-.001953-.0019531-.001953-.0019531h-.001953s-.001953-.0019531-.001953-.0019531-.001953-.0019532-.001953-.0019532c-2.121305-.2731673-4.213255-.3285033-5.486329-.3320312-.4039461-1.3036199-1.1168533-3.4344597-2.0019528-5.39453128zm-3.3613281 9.79296888c-.3988725 1.321462-.9360945 3.237507-1.2851562 5.197266h.0019531.0019531s.0019531-.001954.0019531-.001954h.0019532c.0368225-.021468.0707154-.044819.1074218-.066406.3813831-1.941791.9188046-3.847132 1.2851563-5.035156-.0308607-.023699-.0832503-.069071-.1152344-.09375zm6.7089839.015625c-.031931.024535-.084398.068212-.115234.091797.356631 1.164169.879187 3.033839 1.279297 5.029297.038158.022111.075077.04646.113281.068359v-.001953-.001953-.001953c.000535-.001125.001953-.003119.001953-.003907-.374283-2.021079-.892666-3.88905-1.279297-5.179687z"
     fill="#fff"
     opacity=".3"
     stroke-width="1.097267"
     transform="matrix(1.00000000055 0 0 .9999999971 -.00000145916 -.00000031917)"
     id="path10" />
  <path
     d="m272.90894-88.119096c-.14746.01674-.29488.02783-.44163.04688-.00017.0012.001.003.002.0035v.0017s.002.0017.002.0017c1.41691 1.320584 2.90147 2.459676 3.86704 3.168479.0331-.104294.077-.266562.10767-.36112-.86506-.631997-2.21066-1.668526-3.53673-2.861177zm13.13408.0087c-1.28682 1.166501-2.65909 2.220746-3.54403 2.864649.0304.09451.0748.258367.10767.362856.9909-.72432 2.51523-1.892121 3.87617-3.178893 0 0-.002-.0017-.002-.0017h-.002s-.002-.0017-.002-.0017-.002-.0017-.002-.0017c-.14589-.01787-.28721-.02757-.43252-.0434zm-6.57525 5.057409c-.94518.682911-2.51639 1.760588-4.22291 2.71534-.0349.169189-.076.335902-.10767.50522h.002.002s.002-.0018.002-.0018h.002c1.74632-.968618 3.35911-2.077733 4.32328-2.774369.98669.715813 2.63843 1.859291 4.3324 2.783051v-.0018-.0018-.0018c.0005-.000978.002-.0028.002-.0035-.0328-.168632-.0725-.329578-.10767-.496538-1.65627-.913045-3.26066-2.021558-4.22656-2.722285z"
     opacity=".2"
     transform="matrix(1.0702418 0 0 1.124974 -291.09734 105.30733)"
     id="path12" />
  <circle
     cx="23.5"
     cy="-32.703445"
     fill="#45a925"
     r="4.5"
     transform="matrix(0 1 1 0 44.203445 -12)"
     id="circle14" />
  <path
     d="m11.033203 8.8007812c-.184667 0-.333984.1178917-.333984.265625v1.7343748h-1.7324221c-.1477334 0-.2675781.147365-.2675781.332031v.333985c0 .184667.1198447.333984.2675781.333984h1.7324221v1.732422c0 .147733.149317.267578.333984.267578h.333985c.184666 0 .332031-.119845.332031-.267578v-1.732422h1.734375c.147733 0 .265625-.149317.265625-.333984v-.333985c0-.184666-.117892-.332031-.265625-.332031h-1.734375v-1.7343748c0-.1477333-.147365-.265625-.332031-.265625z"
     fill="#f4f4f4"
     transform="translate(.299998 .2)"
     id="path16" />
  <path
     d="M 11.5 7 A 4.5 4.5 0 0 0 7 11.5 A 4.5 4.5 0 0 0 7.0117188 11.707031 A 4.5 4.5 0 0 1 11.5 7.5 A 4.5 4.5 0 0 1 15.988281 11.792969 A 4.5 4.5 0 0 0 16 11.5 A 4.5 4.5 0 0 0 11.5 7 z "
     id="circle834"
     style="fill:#ffffff;fill-opacity:1;opacity:0.3" />
  <path
     style="opacity:0.2;fill:#000000;fill-opacity:1"
     id="path839"
     d="M 11.5,16 A 4.5,4.5 0 0 0 16.000001,11.499999 4.5,4.5 0 0 0 15.988281,11.292968 4.5,4.5 0 0 1 11.499999,15.5 4.5,4.5 0 0 1 7.0117185,11.20703 4.5,4.5 0 0 0 6.9999995,11.499999 4.5,4.5 0 0 0 11.499999,16 Z"
     inkscape:connector-curvature="0" />
</svg>
